pix_core/i/file_import.svg

<svg fill="none" preserveAspectRatio="xMinYMid meet" viewBox="0 0 20 16" xmlns="http://www.w3.org/2000/svg"><path clip-rule="evenodd" d="m10 0c.5523.00000006 1 .447715 1 1v6.58578l.7929-.79289c.3905-.39052 1.0237-.39052 1.4142 0s.3905 1.02369 0 1.41421l-2.5 2.5c-.1875.1875-.4419.2929-.7071.2929-.26522 0-.51958-.1054-.70711-.2929l-2.5-2.5c-.39052-.39052-.39052-1.02369 0-1.41421.39053-.39052 1.02369-.39052 1.41422 0l.79289.79289v-6.58578c0-.552285.44771-1 1-1zm-7 6c-.45579 0-1 .4455-1 1.22222v5.55558c0 .7767.54421 1.2222 1 1.2222h14c.4558 0 1-.4455 1-1.2222v-5.55558c0-.77672-.5442-1.22222-1-1.22222-.5523 0-1-.44772-1-1s.4477-1 1-1c1.7534 0 3 1.54435 3 3.22222v5.55558c0 1.6779-1.2466 3.2222-3 3.2222h-14c-1.75335 0-3-1.5443-3-3.2222v-5.55558c0-1.67787 1.24665-3.22222 3-3.22222.55228 0 1 .44772 1 1s-.44772 1-1 1z" fill="#fff" fill-rule="evenodd"/></svg>

<svg viewBox="0 0 20 16" fill="none" xmlns="http://www.w3.org/2000/svg" preserveAspectRatio="xMinYMid meet">
<path fill-rule="evenodd" clip-rule="evenodd" d="M10 0C10.5523 5.96046e-08 11 0.447715 11 1L11 7.58578L11.7929 6.79289C12.1834 6.40237 12.8166 6.40237 13.2071 6.79289C13.5976 7.18341 13.5976 7.81658 13.2071 8.2071L10.7071 10.7071C10.5196 10.8946 10.2652 11 10 11C9.73478 11 9.48042 10.8946 9.29289 10.7071L6.79289 8.2071C6.40237 7.81658 6.40237 7.18341 6.79289 6.79289C7.18342 6.40237 7.81658 6.40237 8.20711 6.79289L9 7.58578L9 1C9 0.447715 9.44771 0 10 0ZM3 6C2.54421 6 2 6.4455 2 7.22222V12.7778C2 13.5545 2.54421 14 3 14H17C17.4558 14 18 13.5545 18 12.7778V7.22222C18 6.4455 17.4558 6 17 6C16.4477 6 16 5.55228 16 5C16 4.44772 16.4477 4 17 4C18.7534 4 20 5.54435 20 7.22222V12.7778C20 14.4557 18.7534 16 17 16H3C1.24665 16 0 14.4557 0 12.7778V7.22222C0 5.54435 1.24665 4 3 4C3.55228 4 4 4.44772 4 5C4 5.55228 3.55228 6 3 6Z" fill="#fff"/>
</svg>
